X: 2
T: The League
M: 4/4
L: 1/8
R: reel
K: G Major
|: G2 Bd gdBd | cBAG FADF | GFED CEAG | FDcA (3Bcd cA |
G2 Bd gdBd | cBAG FADF |1 GFED CEAG :|2 FDCA, G,2 ga ||
|: bg (3ggg bgdg | af (3fff afdf | bgaf gefd | ecdB cABG |
G2 Bd gdBd | cBAG FADF | GFED CEAG |1 FDCA, G,2 ga :|2 FDCA, G,4 ||
